modules/hawcons-filled/icons/two-fingers-resize-in.svg

<?xml version="1.0" encoding="UTF-8" standalone="no"?>
<svg width="32px" height="32px" viewBox="0 0 32 32" version="1.1" xmlns="http://www.w3.org/2000/svg" xmlns:xlink="http://www.w3.org/1999/xlink" xmlns:sketch="http://www.bohemiancoding.com/sketch/ns">
    <!-- Generator: Sketch 3.0.3 (7891) - http://www.bohemiancoding.com/sketch -->
    <title>icon 16 two fingers resize in</title>
    <desc>Created with Sketch.</desc>
    <defs></defs>
    <g id="Page-1" stroke="none" stroke-width="1" fill="none" fill-rule="evenodd" sketch:type="MSPage">
        <g id="icon-16-two-fingers-resize-in" sketch:type="MSArtboardGroup" fill="#929292">
            <path d="M14.0660904,1 L14.7731972,1.70710678 L10.6597957,5.8205082 L13.8865986,5.8205082 L13.8865986,6.8205082 L8.88659858,6.8205082 L8.88659858,1.8205082 L9.88659858,1.8205082 L9.88659858,5.1794918 L14.0660904,1 L14.0660904,1 Z M2.70710678,13.6410164 L2,12.9339096 L6.11340142,8.8205082 L2.88659858,8.8205082 L2.88659858,7.8205082 L7.88659858,7.8205082 L7.88659858,12.8205082 L6.88659858,12.8205082 L6.88659858,9.46152461 L2.70710678,13.6410164 L2.70710678,13.6410164 Z M22.8865986,6.31140634 C22.8865986,5.48800603 22.2208013,4.8205082 21.3865986,4.8205082 C20.5581715,4.8205082 19.8865986,5.49672826 19.8865986,6.31140634 L19.8865986,15.2530315 L19.8865986,17.8205082 L18.8865986,17.8205082 L18.8865986,15.3205082 L18.8865986,8.3291448 C18.8865986,7.49594781 18.2208013,6.8205082 17.3865986,6.8205082 C16.5581715,6.8205082 15.8865986,7.48692835 15.8865986,8.3291448 L15.8865986,18.6188533 C13.828199,16.4184325 11.1182284,13.9996288 10.0076313,15.1162235 C8.9204615,16.2092644 11.7219606,19.2212298 15.6339741,25.8036018 C17.3965944,28.7693957 19.6268835,30.82005 23.3865986,30.8205082 C27.5287344,30.8205082 30.8865986,27.462644 30.8865986,23.3205082 L30.8865986,20.0673094 L30.8865986,15.3269059 C30.8865986,14.4949454 30.2208013,13.8205082 29.3865986,13.8205082 C28.5581715,13.8205082 27.8865986,14.496971 27.8865986,15.3269059 L27.8865986,17.5702335 L27.8865986,17.8205082 L26.8865986,17.8205082 L26.8865986,15.4986641 L26.8865986,14.3117735 C26.8865986,13.4881704 26.2208013,12.8205082 25.3865986,12.8205082 C24.5581715,12.8205082 23.8865986,13.4830526 23.8865986,14.3117735 L23.8865986,15.3287093 L23.8865986,16.8205082 L22.8865986,16.8205082 L22.8865986,15.3287093 L22.8865986,6.31140634 L22.8865986,6.31140634 Z" id="two-fingers-resize-in" sketch:type="MSShapeGroup"></path>
        </g>
    </g>
</svg>

<svg width="32" height="32" viewBox="0 0 32 32" xmlns="http://www.w3.org/2000/svg"><path d="M14.066 1l.707.707-4.113 4.114h3.227v1h-5v-5h1v3.358L14.067 1zM2.707 13.641L2 12.934 6.113 8.82H2.887v-1h5v5h-1V9.46l-4.18 4.18zm20.18-7.33c0-.823-.666-1.49-1.5-1.49-.829 0-1.5.676-1.5 1.49v11.51h-1V8.329a1.5 1.5 0 1 0-3 0v10.29c-2.059-2.2-4.769-4.62-5.88-3.503-1.087 1.093 1.715 4.105 5.627 10.688 1.763 2.965 3.993 5.016 7.753 5.017a7.5 7.5 0 0 0 7.5-7.5v-7.994a1.5 1.5 0 1 0-3 0v2.493h-1v-3.508c0-.824-.666-1.491-1.5-1.491-.829 0-1.5.662-1.5 1.49v2.51h-1V6.31z" fill="#929292" fill-rule="evenodd"/></svg>
